X:1
T:Title
%%score { 1 | ( 2 3 ) }
L:1/8
Q:1/4=100
M:4/4
K:Ab
V:1 treble nm="Grand Piano"
V:2 bass 
V:3 bass 
V:1
 [Ec]2 [Ec]>[DB] [CA]2 [A,C]>[B,D] | [CE]4 [CA]2 [EA]2 | [EB]2 [EB]2 [Ee]2 [Ed]2 | [Ec]6 [Ec]2 | %4
w: John~R.~Sweney * * * * *||||
 [Ec]3 [DB] [CA]2 [A,C][B,D] | [CE]4 [EA]2 [FB]2 | [Ec]2 [Fd]c c2 B2 |[M:3/4] [CA]6 | %8
w: ||||
[M:1/4] [CA]2 |[M:4/4] B3 B B2 c2 | B4 [CA]2 c2 | d2 d2 e2 d2 | c6 [Ec]2 | %13
w: |||||
 [=Ec]3 [Ec] [Ed]2 [CGc]2 | [CFB]4 [CFA]2 [CFA]2 | [DFA]3 A G2 F2 | [=Ec]4 [_Ed]4 | %17
w: ||||
 [Ec]2 [Ec]>[DB] [CA]2 [A,C]>[B,D] | [CE]4 [CA]2 [EA]2 | [EB]2 [EB]2 [Ee]2 [Ed]2 | [Ec]6 [Ec]2 | %21
w: ||||
 [Ec]3 [DB] [CA]2 [A,C][B,D] | [CE]4 [EA]2 [FB]2 | [Ec]2 [Fd]c c2 B2 |[M:7/4] [CA]6 z2 z2 z4 |] %25
w: ||||
V:2
 [A,,A,]2 [A,,A,]>[A,,E,] [A,,E,]2 [A,,E,]>[A,,E,] | [A,,A,]4 [A,,E,]2 [C,A,]2 | %2
 [E,G,]2 [E,G,]2 [C,A,]2 [B,,G,]2 | [A,,A,]6 [A,,A,]2 | [A,,A,]3 [A,,E,] [A,,E,]2 [A,,E,]2 | %5
 [A,,A,]4 [C,A,]2 [D,A,]2 | [E,A,]2 z E [E,A,E]2 [E,G,D]2 |[M:3/4] [A,,A,]6 |[M:1/4] [A,,A,]2 | %9
[M:4/4] [E,G,E]3 [E,G,E] [E,G,E]2 [E,A,E]2 | [E,G,D]4 [A,,A,]2 [A,E]2 | %11
 [E,G,E]2 [E,G,E]2 [F,CE]2 [G,B,E]2 | [A,E]6 [A,,A,]2 | [C,G,]3 [C,G,] [C,G,]2 =E,2 | F,4 F,2 F,2 | %15
 D,3 A, G,2 F,2 | G,8 | [A,,A,]2 [A,,A,]>[A,,E,] [A,,E,]2 [A,,E,]>[A,,E,] | %18
 [A,,A,]4 [A,,E,]2 [C,A,]2 | [E,G,]2 [E,G,]2 [C,A,]2 [B,,G,]2 | [A,,A,]6 [A,,A,]2 | %21
 [A,,A,]3 [A,,E,] [A,,E,]2 [A,,E,]2 | [A,,A,]4 [C,A,]2 [D,A,]2 | [E,A,]2 z E [E,A,E]2 [E,G,D]2 | %24
[M:7/4] [A,,A,]6 z2 z2 z4 |] %25
V:3
 x8 | x8 | x8 | x8 | x8 | x8 | z2 [E,A,]2 z4 |[M:3/4] x6 |[M:1/4] x2 |[M:4/4] x8 | x8 | x8 | x8 | %13
 x8 | x8 | x8 | C,4 B,,4 | x8 | x8 | x8 | x8 | x8 | x8 | z2 [E,A,]2 z4 |[M:7/4] x14 |] %25

